client/public/img/game/shared/emotes/plumpkin.svg

<?xml version="1.0" encoding="UTF-8" standalone="no"?>
<!-- Created with Inkscape (http://www.inkscape.org/) -->

<svg
   width="84"
   height="84"
   viewBox="0 0 22.225001 22.225001"
   version="1.1"
   id="svg21119"
   xmlns="http://www.w3.org/2000/svg"
   xmlns:svg="http://www.w3.org/2000/svg">
  <defs
     id="defs21116" />
  <g
     id="layer1">
    <g
       id="g50096"
       transform="matrix(0.18910697,0,0,0.18910697,0.38666405,0.8314169)">
      <g
         id="g40102"
         style="fill:#8a4c70;fill-opacity:1;stroke:none;stroke-opacity:1"
         transform="translate(-56.977199,-171.81746)">
        <path
           id="ellipse40092"
           style="fill:#8a4c70;fill-opacity:1;stroke:none;stroke-width:4.54104;stroke-linecap:round;stroke-linejoin:round;stroke-dasharray:none;stroke-opacity:1;paint-order:fill markers stroke"
           d="m 83.519244,195.71895 a 24.249119,40.003532 0 0 0 -24.249166,40.00324 24.249119,40.003532 0 0 0 24.249166,40.00376 24.249119,40.003532 0 0 0 2.524393,-0.24081 24.249119,40.003532 0 0 0 9.645406,3.30109 24.249119,40.003532 0 0 0 6.079217,-1.29708 24.249119,40.003532 0 0 0 11.91348,5.18728 24.249119,40.003532 0 0 0 12.09487,-5.35626 24.249119,40.003532 0 0 0 6.49934,1.46606 24.249119,40.003532 0 0 0 9.53586,-3.2303 24.249119,40.003532 0 0 0 2.10478,0.17002 24.249119,40.003532 0 0 0 24.24916,-40.00376 24.249119,40.003532 0 0 0 -24.24916,-40.00324 24.249119,40.003532 0 0 0 -9.51415,3.21634 24.249119,40.003532 0 0 0 -2.12649,-0.15607 24.249119,40.003532 0 0 0 -12.09538,5.35627 24.249119,40.003532 0 0 0 -6.49883,-1.46606 24.249119,40.003532 0 0 0 -6.06009,1.28932 24.249119,40.003532 0 0 0 -11.932607,-5.17953 24.249119,40.003532 0 0 0 -2.526977,0.24133 24.249119,40.003532 0 0 0 -9.642822,-3.3016 z" />
      </g>
      <path
         id="ellipse40105"
         style="fill:#9a557d;fill-opacity:1;stroke:none;stroke-width:4.54104;stroke-linecap:round;stroke-linejoin:round;stroke-dasharray:none;stroke-opacity:1;paint-order:fill markers stroke"
         d="M 38.712073,26.961873 A 24.249119,40.003532 0 0 0 14.462904,66.965116 24.249119,40.003532 0 0 0 38.712073,106.96888 24.249119,40.003532 0 0 0 57.005523,93.189359 24.249119,40.003532 0 0 0 75.298983,106.96888 24.249119,40.003532 0 0 0 99.547633,66.965116 24.249119,40.003532 0 0 0 75.298983,26.961873 24.249119,40.003532 0 0 0 57.013283,40.726408 24.249119,40.003532 0 0 0 38.712073,26.961873 Z" />
      <circle
         style="fill:#693a55;fill-opacity:1;stroke:none;stroke-width:3.49999;stroke-linecap:round;stroke-linejoin:round;stroke-dasharray:none;stroke-opacity:1;paint-order:fill markers stroke"
         id="path40427"
         cx="97.094902"
         cy="49.509708"
         r="9.3411856" />
      <circle
         style="fill:#693a55;fill-opacity:1;stroke:none;stroke-width:3.49999;stroke-linecap:round;stroke-linejoin:round;stroke-dasharray:none;stroke-opacity:1;paint-order:fill markers stroke"
         id="path40441"
         cx="25.898468"
         cy="43.138233"
         r="5.3392553" />
      <circle
         style="fill:#693a55;fill-opacity:1;stroke:none;stroke-width:3.49999;stroke-linecap:round;stroke-linejoin:round;stroke-dasharray:none;stroke-opacity:1;paint-order:fill markers stroke"
         id="path40443"
         cx="23.673775"
         cy="82.070305"
         r="7.5639448" />
      <circle
         style="fill:#693a55;fill-opacity:1;stroke:none;stroke-width:3.49999;stroke-linecap:round;stroke-linejoin:round;stroke-dasharray:none;stroke-opacity:1;paint-order:fill markers stroke"
         id="path40447"
         cx="13.608658"
         cy="54.261684"
         r="6.4516001" />
      <circle
         style="fill:#693a55;fill-opacity:1;stroke:none;stroke-width:3.49999;stroke-linecap:round;stroke-linejoin:round;stroke-dasharray:none;stroke-opacity:1;paint-order:fill markers stroke"
         id="path40449"
         cx="94.64138"
         cy="82.515251"
         r="9.3436975" />
      <path
         id="path40125"
         style="fill:none;fill-opacity:1;stroke:#21121b;stroke-width:4.54104;stroke-linecap:round;stroke-linejoin:round;stroke-dasharray:none;stroke-opacity:1;paint-order:fill markers stroke"
         d="M 38.689713,26.961851 A 24.249119,40.003532 0 0 0 14.440546,66.965094 24.249119,40.003532 0 0 0 38.689713,106.96886 24.249119,40.003532 0 0 0 56.983163,93.189339 24.249119,40.003532 0 0 0 75.276623,106.96886 24.249119,40.003532 0 0 0 99.525273,66.965094 24.249119,40.003532 0 0 0 75.276623,26.961851 24.249119,40.003532 0 0 0 56.990923,40.726386 24.249119,40.003532 0 0 0 38.689713,26.961851 Z" />
      <ellipse
         style="fill:#a45b85;fill-opacity:1;stroke:none;stroke-width:4.54104;stroke-linecap:round;stroke-linejoin:round;stroke-dasharray:none;stroke-opacity:1;paint-order:fill markers stroke"
         id="ellipse40117"
         cx="56.704536"
         cy="70.855507"
         rx="24.249119"
         ry="40.003532" />
      <g
         id="g40123"
         style="fill:none;fill-opacity:1;stroke:#21121b;stroke-opacity:1"
         transform="translate(-56.999558,-171.81748)">
        <path
           id="path40121"
           style="fill:none;fill-opacity:1;stroke:#21121b;stroke-width:4.54104;stroke-linecap:round;stroke-linejoin:round;stroke-dasharray:none;stroke-opacity:1;paint-order:fill markers stroke"
           d="m 83.519244,195.71895 a 24.249119,40.003532 0 0 0 -24.249166,40.00324 24.249119,40.003532 0 0 0 24.249166,40.00376 24.249119,40.003532 0 0 0 2.524393,-0.24081 24.249119,40.003532 0 0 0 9.645406,3.30109 24.249119,40.003532 0 0 0 6.079217,-1.29708 24.249119,40.003532 0 0 0 11.91348,5.18728 24.249119,40.003532 0 0 0 12.09487,-5.35626 24.249119,40.003532 0 0 0 6.49934,1.46606 24.249119,40.003532 0 0 0 9.53586,-3.2303 24.249119,40.003532 0 0 0 2.10478,0.17002 24.249119,40.003532 0 0 0 24.24916,-40.00376 24.249119,40.003532 0 0 0 -24.24916,-40.00324 24.249119,40.003532 0 0 0 -9.51415,3.21634 24.249119,40.003532 0 0 0 -2.12649,-0.15607 24.249119,40.003532 0 0 0 -12.09538,5.35627 24.249119,40.003532 0 0 0 -6.49883,-1.46606 24.249119,40.003532 0 0 0 -6.06009,1.28932 24.249119,40.003532 0 0 0 -11.932607,-5.17953 24.249119,40.003532 0 0 0 -2.526977,0.24133 24.249119,40.003532 0 0 0 -9.642822,-3.3016 z" />
      </g>
      <circle
         style="fill:#693a55;fill-opacity:1;stroke:none;stroke-width:3.49999;stroke-linecap:round;stroke-linejoin:round;stroke-dasharray:none;stroke-opacity:1;paint-order:fill markers stroke"
         id="path40417"
         cx="32.615784"
         cy="66.262459"
         r="7.520699" />
      <circle
         style="fill:#693a55;fill-opacity:1;stroke:none;stroke-width:3.49999;stroke-linecap:round;stroke-linejoin:round;stroke-dasharray:none;stroke-opacity:1;paint-order:fill markers stroke"
         id="path40419"
         cx="40.136482"
         cy="58.741756"
         r="7.5206985" />
      <circle
         style="fill:#693a55;fill-opacity:1;stroke:none;stroke-width:3.49999;stroke-linecap:round;stroke-linejoin:round;stroke-dasharray:none;stroke-opacity:1;paint-order:fill markers stroke"
         id="path40429"
         cx="74.304741"
         cy="43.376125"
         r="7.5793633" />
      <circle
         style="fill:#693a55;fill-opacity:1;stroke:none;stroke-width:3.49999;stroke-linecap:round;stroke-linejoin:round;stroke-dasharray:none;stroke-opacity:1;paint-order:fill markers stroke"
         id="path40431"
         cx="79.278755"
         cy="37.65723"
         r="5.2341461" />
      <circle
         style="fill:#693a55;fill-opacity:1;stroke:none;stroke-width:3.49999;stroke-linecap:round;stroke-linejoin:round;stroke-dasharray:none;stroke-opacity:1;paint-order:fill markers stroke"
         id="path40445"
         cx="57.044121"
         cy="105.12287"
         r="6.8965383" />
      <ellipse
         style="fill:none;fill-opacity:1;stroke:#21121b;stroke-width:4.54104;stroke-linecap:round;stroke-linejoin:round;stroke-dasharray:none;stroke-opacity:1;paint-order:fill markers stroke"
         id="ellipse40127"
         cx="56.682182"
         cy="70.855484"
         rx="24.249119"
         ry="40.003532" />
      <circle
         style="fill:#693a55;fill-opacity:1;stroke:none;stroke-width:3.49999;stroke-linecap:round;stroke-linejoin:round;stroke-dasharray:none;stroke-opacity:1;paint-order:fill markers stroke"
         id="path40421"
         cx="54.819435"
         cy="83.85006"
         r="9.7886343" />
      <circle
         style="fill:#693a55;fill-opacity:1;stroke:none;stroke-width:3.49999;stroke-linecap:round;stroke-linejoin:round;stroke-dasharray:none;stroke-opacity:1;paint-order:fill markers stroke"
         id="path40423"
         cx="59.557732"
         cy="75.284676"
         r="13.303689" />
      <circle
         style="fill:#693a55;fill-opacity:1;stroke:none;stroke-width:3.49999;stroke-linecap:round;stroke-linejoin:round;stroke-dasharray:none;stroke-opacity:1;paint-order:fill markers stroke"
         id="path40437"
         cx="56.154243"
         cy="42.470829"
         r="7.3414764" />
      <circle
         style="fill:#693a55;fill-opacity:1;stroke:none;stroke-width:3.49999;stroke-linecap:round;stroke-linejoin:round;stroke-dasharray:none;stroke-opacity:1;paint-order:fill markers stroke"
         id="path40439"
         cx="57.044121"
         cy="52.48193"
         r="6.2291312" />
      <path
         style="fill:#8b7f50;fill-opacity:1;stroke:#262316;stroke-width:3.49999;stroke-linecap:round;stroke-linejoin:round;stroke-dasharray:none;stroke-opacity:1;paint-order:fill markers stroke"
         d="m 45.163723,27.574793 c 2.46448,-2.54604 1.76359,-3.86219 7.28385,-7.39011 L 62.272846,3.8666394 c 10.318442,-13.0514667 6.793115,-3.20258443 6.4516,1.33482 L 60.456453,20.852093 c 5.60936,2.95646 3.73105,5.28805 7.82366,6.79539 -10.05889,4.64936 -14.47062,3.90063 -23.11639,-0.0727 z"
         id="path41919" />
    </g>
  </g>
</svg>

<svg xmlns="http://www.w3.org/2000/svg" width="84" height="84" viewBox="0 0 22.225 22.225"><g transform="matrix(.1891 0 0 .1891 .387 .831)"><g style="fill:#8a4c70;fill-opacity:1;stroke:none;stroke-opacity:1"><path d="M83.52 195.719a24.25 40.004 0 0 0-24.25 40.003 24.25 40.004 0 0 0 24.25 40.004 24.25 40.004 0 0 0 2.524-.24 24.25 40.004 0 0 0 9.645 3.3 24.25 40.004 0 0 0 6.08-1.297 24.25 40.004 0 0 0 11.913 5.187 24.25 40.004 0 0 0 12.095-5.356 24.25 40.004 0 0 0 6.499 1.466 24.25 40.004 0 0 0 9.536-3.23 24.25 40.004 0 0 0 2.105.17 24.25 40.004 0 0 0 24.249-40.004 24.25 40.004 0 0 0-24.25-40.003 24.25 40.004 0 0 0-9.514 3.216 24.25 40.004 0 0 0-2.126-.156 24.25 40.004 0 0 0-12.095 5.356 24.25 40.004 0 0 0-6.5-1.466 24.25 40.004 0 0 0-6.06 1.29 24.25 40.004 0 0 0-11.932-5.18 24.25 40.004 0 0 0-2.527.242 24.25 40.004 0 0 0-9.643-3.302" style="fill:#8a4c70;fill-opacity:1;stroke:none;stroke-width:4.54104;stroke-linecap:round;stroke-linejoin:round;stroke-dasharray:none;stroke-opacity:1;paint-order:fill markers stroke" transform="translate(-56.977 -171.817)"/></g><path d="M38.712 26.962a24.25 40.004 0 0 0-24.25 40.003 24.25 40.004 0 0 0 24.25 40.004 24.25 40.004 0 0 0 18.294-13.78 24.25 40.004 0 0 0 18.293 13.78 24.25 40.004 0 0 0 24.249-40.004 24.25 40.004 0 0 0-24.249-40.003 24.25 40.004 0 0 0-18.286 13.764 24.25 40.004 0 0 0-18.3-13.764" style="fill:#9a557d;fill-opacity:1;stroke:none;stroke-width:4.54104;stroke-linecap:round;stroke-linejoin:round;stroke-dasharray:none;stroke-opacity:1;paint-order:fill markers stroke"/><circle cx="97.095" cy="49.51" r="9.341" style="fill:#693a55;fill-opacity:1;stroke:none;stroke-width:3.49999;stroke-linecap:round;stroke-linejoin:round;stroke-dasharray:none;stroke-opacity:1;paint-order:fill markers stroke"/><circle cx="25.898" cy="43.138" r="5.339" style="fill:#693a55;fill-opacity:1;stroke:none;stroke-width:3.49999;stroke-linecap:round;stroke-linejoin:round;stroke-dasharray:none;stroke-opacity:1;paint-order:fill markers stroke"/><circle cx="23.674" cy="82.07" r="7.564" style="fill:#693a55;fill-opacity:1;stroke:none;stroke-width:3.49999;stroke-linecap:round;stroke-linejoin:round;stroke-dasharray:none;stroke-opacity:1;paint-order:fill markers stroke"/><circle cx="13.609" cy="54.262" r="6.452" style="fill:#693a55;fill-opacity:1;stroke:none;stroke-width:3.49999;stroke-linecap:round;stroke-linejoin:round;stroke-dasharray:none;stroke-opacity:1;paint-order:fill markers stroke"/><circle cx="94.641" cy="82.515" r="9.344" style="fill:#693a55;fill-opacity:1;stroke:none;stroke-width:3.49999;stroke-linecap:round;stroke-linejoin:round;stroke-dasharray:none;stroke-opacity:1;paint-order:fill markers stroke"/><path d="M38.69 26.962a24.25 40.004 0 0 0-24.25 40.003 24.25 40.004 0 0 0 24.25 40.004 24.25 40.004 0 0 0 18.293-13.78 24.25 40.004 0 0 0 18.294 13.78 24.25 40.004 0 0 0 24.248-40.004 24.25 40.004 0 0 0-24.248-40.003A24.25 40.004 0 0 0 56.99 40.726 24.25 40.004 0 0 0 38.69 26.962" style="fill:none;fill-opacity:1;stroke:#21121b;stroke-width:4.54104;stroke-linecap:round;stroke-linejoin:round;stroke-dasharray:none;stroke-opacity:1;paint-order:fill markers stroke"/><ellipse cx="56.705" cy="70.856" rx="24.249" ry="40.004" style="fill:#a45b85;fill-opacity:1;stroke:none;stroke-width:4.54104;stroke-linecap:round;stroke-linejoin:round;stroke-dasharray:none;stroke-opacity:1;paint-order:fill markers stroke"/><g style="fill:none;fill-opacity:1;stroke:#21121b;stroke-opacity:1"><path d="M83.52 195.719a24.25 40.004 0 0 0-24.25 40.003 24.25 40.004 0 0 0 24.25 40.004 24.25 40.004 0 0 0 2.524-.24 24.25 40.004 0 0 0 9.645 3.3 24.25 40.004 0 0 0 6.08-1.297 24.25 40.004 0 0 0 11.913 5.187 24.25 40.004 0 0 0 12.095-5.356 24.25 40.004 0 0 0 6.499 1.466 24.25 40.004 0 0 0 9.536-3.23 24.25 40.004 0 0 0 2.105.17 24.25 40.004 0 0 0 24.249-40.004 24.25 40.004 0 0 0-24.25-40.003 24.25 40.004 0 0 0-9.514 3.216 24.25 40.004 0 0 0-2.126-.156 24.25 40.004 0 0 0-12.095 5.356 24.25 40.004 0 0 0-6.5-1.466 24.25 40.004 0 0 0-6.06 1.29 24.25 40.004 0 0 0-11.932-5.18 24.25 40.004 0 0 0-2.527.242 24.25 40.004 0 0 0-9.643-3.302" style="fill:none;fill-opacity:1;stroke:#21121b;stroke-width:4.54104;stroke-linecap:round;stroke-linejoin:round;stroke-dasharray:none;stroke-opacity:1;paint-order:fill markers stroke" transform="translate(-57 -171.817)"/></g><circle cx="32.616" cy="66.262" r="7.521" style="fill:#693a55;fill-opacity:1;stroke:none;stroke-width:3.49999;stroke-linecap:round;stroke-linejoin:round;stroke-dasharray:none;stroke-opacity:1;paint-order:fill markers stroke"/><circle cx="40.136" cy="58.742" r="7.521" style="fill:#693a55;fill-opacity:1;stroke:none;stroke-width:3.49999;stroke-linecap:round;stroke-linejoin:round;stroke-dasharray:none;stroke-opacity:1;paint-order:fill markers stroke"/><circle cx="74.305" cy="43.376" r="7.579" style="fill:#693a55;fill-opacity:1;stroke:none;stroke-width:3.49999;stroke-linecap:round;stroke-linejoin:round;stroke-dasharray:none;stroke-opacity:1;paint-order:fill markers stroke"/><circle cx="79.279" cy="37.657" r="5.234" style="fill:#693a55;fill-opacity:1;stroke:none;stroke-width:3.49999;stroke-linecap:round;stroke-linejoin:round;stroke-dasharray:none;stroke-opacity:1;paint-order:fill markers stroke"/><circle cx="57.044" cy="105.123" r="6.897" style="fill:#693a55;fill-opacity:1;stroke:none;stroke-width:3.49999;stroke-linecap:round;stroke-linejoin:round;stroke-dasharray:none;stroke-opacity:1;paint-order:fill markers stroke"/><ellipse cx="56.682" cy="70.855" rx="24.249" ry="40.004" style="fill:none;fill-opacity:1;stroke:#21121b;stroke-width:4.54104;stroke-linecap:round;stroke-linejoin:round;stroke-dasharray:none;stroke-opacity:1;paint-order:fill markers stroke"/><circle cx="54.819" cy="83.85" r="9.789" style="fill:#693a55;fill-opacity:1;stroke:none;stroke-width:3.49999;stroke-linecap:round;stroke-linejoin:round;stroke-dasharray:none;stroke-opacity:1;paint-order:fill markers stroke"/><circle cx="59.558" cy="75.285" r="13.304" style="fill:#693a55;fill-opacity:1;stroke:none;stroke-width:3.49999;stroke-linecap:round;stroke-linejoin:round;stroke-dasharray:none;stroke-opacity:1;paint-order:fill markers stroke"/><circle cx="56.154" cy="42.471" r="7.341" style="fill:#693a55;fill-opacity:1;stroke:none;stroke-width:3.49999;stroke-linecap:round;stroke-linejoin:round;stroke-dasharray:none;stroke-opacity:1;paint-order:fill markers stroke"/><circle cx="57.044" cy="52.482" r="6.229" style="fill:#693a55;fill-opacity:1;stroke:none;stroke-width:3.49999;stroke-linecap:round;stroke-linejoin:round;stroke-dasharray:none;stroke-opacity:1;paint-order:fill markers stroke"/><path d="M45.164 27.575c2.464-2.546 1.763-3.862 7.284-7.39l9.825-16.318C72.59-9.185 69.066.664 68.724 5.2l-8.268 15.651c5.61 2.957 3.732 5.288 7.824 6.795-10.059 4.65-14.47 3.901-23.116-.072" style="fill:#8b7f50;fill-opacity:1;stroke:#262316;stroke-width:3.49999;stroke-linecap:round;stroke-linejoin:round;stroke-dasharray:none;stroke-opacity:1;paint-order:fill markers stroke"/></g></svg>
